svgs/regular/house-medical-circle-xmark.svg

<svg xmlns="http://www.w3.org/2000/svg" viewBox="0 0 640 512"><!--! Font Awesome Pro 6.3.0 by @fontawesome - https://fontawesome.com License - https://fontawesome.com/license (Commercial License) Copyright 2023 Fonticons, Inc. --><path d="M272.5 5.7c9-7.6 22.1-7.6 31.1 0L526.1 194.6c-9.8-1.7-19.9-2.6-30.1-2.6c-14.2 0-28.1 1.7-41.3 4.9L288 55.5 112 204.8V432c0 17.7 14.3 32 32 32H348.5c12.3 18.8 28 35.1 46.3 48H144c-44.2 0-80-35.8-80-80V245.5L39.5 266.3c-10.1 8.6-25.3 7.3-33.8-2.8s-7.3-25.3 2.8-33.8l264-224zM320 256h40.2c-15.3 18.5-26.9 40.2-33.6 64H320v48c0 8.8-7.2 16-16 16H272c-8.8 0-16-7.2-16-16V320H208c-8.8 0-16-7.2-16-16V272c0-8.8 7.2-16 16-16h48V208c0-8.8 7.2-16 16-16h32c8.8 0 16 7.2 16 16v48zm176-32a144 144 0 1 1 0 288 144 144 0 1 1 0-288zm22.6 144l36.7-36.7c6.2-6.2 6.2-16.4 0-22.6s-16.4-6.2-22.6 0L496 345.4l-36.7-36.7c-6.2-6.2-16.4-6.2-22.6 0s-6.2 16.4 0 22.6L473.4 368l-36.7 36.7c-6.2 6.2-6.2 16.4 0 22.6s16.4 6.2 22.6 0L496 390.6l36.7 36.7c6.2 6.2 16.4 6.2 22.6 0s6.2-16.4 0-22.6L518.6 368z"/></svg>

<svg xmlns="http://www.w3.org/2000/svg" viewBox="0 0 640 512"><!--! Font Awesome Pro 6.2.0 by @fontawesome - https://fontawesome.com License - https://fontawesome.com/license (Commercial License) Copyright 2022 Fonticons, Inc. --><path d="M272.5 5.7C281.4-1.9 294.6-1.9 303.5 5.7L526.1 194.6C516.3 192.9 506.3 192 496 192C481.8 192 467.9 193.7 454.7 196.9L288 55.47L112 204.8V432C112 449.7 126.3 464 144 464H348.5C360.7 482.8 376.5 499.1 394.8 512H144C99.82 512 64 476.2 64 432V245.5L39.53 266.3C29.42 274.9 14.28 273.6 5.7 263.5C-2.875 253.4-1.634 238.3 8.473 229.7L272.5 5.7zM384 232L384.3 232C359.1 252.7 339.7 280.4 329.1 312H328V315.4C322.8 331.1 320 349.7 320 368C320 372.6 320.2 377.1 320.5 381.5C318 383.1 315.1 384 312 384H264C255.2 384 248 376.8 248 368V312H192C183.2 312 176 304.8 176 296V248C176 239.2 183.2 232 192 232H248V176C248 167.2 255.2 160 264 160H312C320.8 160 328 167.2 328 176V232H384zM352 368C352 288.5 416.5 224 496 224C575.5 224 640 288.5 640 368C640 447.5 575.5 512 496 512C416.5 512 352 447.5 352 368zM555.3 331.3C561.6 325.1 561.6 314.9 555.3 308.7C549.1 302.4 538.9 302.4 532.7 308.7L496 345.4L459.3 308.7C453.1 302.4 442.9 302.4 436.7 308.7C430.4 314.9 430.4 325.1 436.7 331.3L473.4 368L436.7 404.7C430.4 410.9 430.4 421.1 436.7 427.3C442.9 433.6 453.1 433.6 459.3 427.3L496 390.6L532.7 427.3C538.9 433.6 549.1 433.6 555.3 427.3C561.6 421.1 561.6 410.9 555.3 404.7L518.6 368L555.3 331.3z"/></svg>
